X: 37670
T: Snowy Morning
R: waltz
M: 3/4
K: Eminor
"Em"E3D EG|"G"B4AB|"Am"cB AG FE|"B7"FE FA GF|
"Em"DE ED EG|"G"B4AB|"Am"cB AG FE|1 "B7"F3A GF:|2 "B7"F3F GA||
|:"Em"BE BE BE|"C"cE cE cE|"G"BA GB AG|"B7"AG FG A^A|
"Em"BE BE BE|"C"Ec cE cA|"G"BA GB AG|1 "B7"FG AF GA:|2 "B7"A2 FA GF||

